SVG/NICEHASH.svg

<svg xmlns="http://www.w3.org/2000/svg" width="226.777" height="226.777" viewBox="0 0 226.777 226.777"><path d="M 113.44141 0 C 50.789406 0 0 50.790359 0 113.44336 C 0 176.09736 50.789406 226.88477 113.44141 226.88477 C 176.09541 226.88477 226.88477 176.09736 226.88477 113.44336 C 226.88577 50.790359 176.09641 0 113.44141 0 z M 66.699219 51.146484 C 68.311296 51.174314 69.891346 52.183519 70.667969 53.753906 L 71.054688 54.537109 L 71.085938 57.457031 L 71.117188 60.375 L 74.513672 60.375 L 77.912109 60.375 L 77.912109 58.029297 C 77.912449 56.738992 77.959756 55.38233 78.017578 55.013672 C 78.397082 52.595611 80.73786 50.840668 83.09375 51.207031 C 84.98659 51.501391 86.581077 53.103511 86.880859 55.013672 C 86.938679 55.38233 86.986045 56.733177 86.986328 58.017578 L 86.986328 60.353516 L 89.435547 60.396484 C 91.634967 60.435304 91.952973 60.464173 92.539062 60.669922 C 94.150172 61.235396 95.391276 62.473751 95.978516 64.099609 L 96.216797 64.757812 L 96.216797 92.910156 L 96.216797 121.0625 L 95.976562 121.75977 C 95.491573 123.16386 94.561022 124.2197 93.226562 124.88086 C 92.232602 125.37334 91.724009 125.44531 89.199219 125.44531 L 87.003906 125.44531 L 86.964844 128.77148 C 86.927714 131.93956 86.914781 132.12371 86.691406 132.6875 C 86.359283 133.52566 85.876646 134.18592 85.189453 134.74219 C 84.347834 135.42346 83.546727 135.70508 82.449219 135.70508 C 81.351711 135.70508 80.550603 135.42346 79.708984 134.74219 C 79.02179 134.18592 78.539141 133.52566 78.207031 132.6875 C 77.983627 132.12371 77.970698 131.93956 77.933594 128.77148 L 77.894531 125.44531 L 74.5 125.44531 L 71.105469 125.44531 L 71.105469 128.68359 C 71.105469 131.52876 71.081197 131.99649 70.916016 132.52539 C 70.204615 134.80418 67.781609 136.19477 65.5625 135.59766 L 65.560547 135.59766 C 63.907333 135.15228 62.579026 133.75187 62.234375 132.0918 C 62.143585 131.6545 62.15537 130.85698 62.28125 128.5625 C 62.37068 126.93235 62.443585 125.41017 62.443359 125.17969 L 62.443359 124.76172 L 61.056641 124.48633 C 53.486262 122.98778 48.338821 118.06227 46.814453 110.85938 C 46.443533 109.10671 46.32143 107.59711 46.384766 105.55664 C 46.443486 103.66392 46.583113 102.66531 47.017578 101.07227 C 47.944734 97.67272 50.102693 94.489466 52.873047 92.435547 C 53.343221 92.086953 53.728516 91.768355 53.728516 91.726562 C 53.728516 91.684753 53.351969 91.367612 52.892578 91.021484 C 50.814679 89.45586 48.995199 87.013678 48.074219 84.556641 C 47.356101 82.640851 47.045102 80.829544 47.048828 78.576172 C 47.054028 75.32499 47.660126 72.608024 48.953125 70.027344 C 51.212633 65.517616 55.471611 62.32053 60.921875 61.042969 L 62.132812 60.759766 L 62.134766 57.962891 C 62.136466 56.425338 62.184818 54.963731 62.242188 54.714844 C 62.648842 52.951035 64.216026 51.487221 66.009766 51.195312 C 66.239209 51.157972 66.46893 51.142564 66.699219 51.146484 z M 145.18945 51.523438 C 146.4502 51.572558 147.70276 52.159917 148.58008 53.314453 C 149.3825 54.370406 149.42599 54.596536 149.46289 57.875 L 149.49609 60.787109 L 152.89258 60.787109 L 156.28906 60.787109 L 156.29102 58.390625 C 156.29102 57.07196 156.3393 55.693859 156.39844 55.330078 C 156.63351 53.881373 157.58549 52.620219 158.95117 51.945312 C 159.70726 51.571657 159.7722 51.558594 160.82812 51.558594 C 161.88406 51.558594 161.94898 51.571645 162.70508 51.945312 C 164.07076 52.620212 165.02079 53.881373 165.25586 55.330078 C 165.31496 55.693859 165.3648 57.143312 165.36523 58.548828 C 165.36611 60.504123 165.39559 61.112212 165.49414 61.140625 C 165.56504 61.161035 166.04889 61.277313 166.56836 61.398438 C 169.64199 62.115086 172.60283 63.595118 174.77734 65.5 C 177.90618 68.240896 179.85626 72.195524 180.32812 76.759766 C 180.49671 78.390565 180.39481 81.066103 180.11328 82.390625 C 179.32685 86.089935 177.35069 89.271831 174.51172 91.408203 L 173.62891 92.072266 L 174.42188 92.589844 C 175.52299 93.310825 177.44522 95.257351 178.24219 96.457031 C 180.40856 99.718091 181.38088 103.76211 181.0625 108.19727 C 180.56963 115.06319 177.55898 120.05952 172.17188 122.95508 C 170.55955 123.82172 167.63309 124.77827 165.9668 124.98242 L 165.38281 125.05469 L 165.34375 128.57617 C 165.30735 131.95193 165.29561 132.1201 165.07031 132.6875 C 164.73724 133.52632 164.25517 134.18623 163.56836 134.74219 C 162.72674 135.42345 161.92562 135.70508 160.82812 135.70508 C 159.73063 135.70508 158.92756 135.42345 158.08594 134.74219 C 157.39874 134.18593 156.91611 133.52568 156.58398 132.6875 C 156.36059 132.12372 156.3496 131.93955 156.3125 128.77148 L 156.27344 125.44531 L 152.87891 125.44531 L 149.48242 125.44531 L 149.48242 128.68359 C 149.48242 131.52874 149.46011 131.99649 149.29492 132.52539 C 148.58112 134.81179 146.16137 136.19489 143.92578 135.59375 L 143.92383 135.59375 C 143.09945 135.37208 142.43434 134.97026 141.8125 134.31836 C 140.62366 133.0721 140.51172 132.57148 140.51172 128.56836 L 140.51172 125.44531 L 138.21289 125.44531 C 134.99486 125.44531 134.18686 125.20432 132.82812 123.8457 C 132.41475 123.43234 131.98669 122.88141 131.82617 122.55664 C 131.1865 121.2625 131.23047 123.40476 131.23047 93.140625 C 131.23047 62.491375 131.17824 64.72952 131.91211 63.503906 C 132.3966 62.694763 133.30311 61.791842 134.00586 61.419922 C 135.09144 60.845402 135.47251 60.787109 138.10547 60.787109 L 140.51172 60.787109 L 140.51172 58.214844 C 140.51172 55.37534 140.5775 54.855233 141.0625 53.935547 C 141.93238 52.285856 143.5685 51.460324 145.18945 51.523438 z M 83.480469 71.8125 L 74.380859 71.849609 C 64.508575 71.890169 64.9011 71.869135 63.238281 72.472656 C 61.591235 73.070457 60.254431 74.232923 59.560547 75.667969 C 58.965141 76.899356 58.798828 77.698332 58.798828 79.349609 C 58.798828 80.941493 58.953317 81.74165 59.484375 82.888672 C 60.459809 84.995553 62.516622 86.344532 65.390625 86.763672 C 65.726213 86.812562 69.933112 86.858287 74.740234 86.865234 L 83.480469 86.876953 L 83.480469 79.345703 L 83.480469 71.8125 z M 143.70898 71.822266 L 143.70898 79.349609 L 143.70898 86.876953 L 152.29297 86.876953 C 159.26686 86.876613 161.06357 86.847932 161.85938 86.726562 C 163.85736 86.421958 165.22289 85.785603 166.39844 84.611328 C 167.71153 83.299603 168.35352 81.573731 168.35352 79.349609 C 168.35352 75.845704 166.64498 73.372967 163.50977 72.341797 C 162.00826 71.847937 161.46036 71.822919 152.29297 71.822266 L 143.70898 71.822266 z M 74.84375 97.912109 C 69.710585 97.912449 65.828974 97.955648 65.277344 98.017578 C 62.659487 98.311598 60.565645 99.353074 59.345703 100.96875 C 58.265458 102.3994 57.751283 104.10482 57.765625 106.21289 C 57.776535 107.80928 57.989706 108.75051 58.642578 110.08008 C 58.992848 110.79336 59.24753 111.12879 60.009766 111.88672 C 61.31483 113.18441 62.795786 113.92495 64.626953 114.19531 C 65.04234 114.25671 65.496872 114.32296 65.638672 114.34375 C 65.780481 114.36455 69.853986 114.38878 74.689453 114.39648 L 83.480469 114.41016 L 83.480469 106.16211 L 83.480469 97.912109 L 74.84375 97.912109 z M 144.01758 97.912109 L 144.01758 106.16211 L 144.01758 114.41016 L 152.60352 114.41016 C 158.03185 114.41016 161.53033 114.37039 162.11719 114.30078 C 165.15678 113.94069 167.59872 112.23365 168.82422 109.61523 C 169.48892 108.19502 169.64648 107.48148 169.64648 105.85156 C 169.64648 104.21782 169.48393 103.47338 168.83984 102.13867 C 168.49842 101.43114 168.24642 101.0934 167.53516 100.38281 C 166.16569 99.014606 164.50537 98.274484 162.23633 98.021484 C 161.61332 97.952084 158.06173 97.912109 152.63281 97.912109 L 144.01758 97.912109 z M 161.60156 146.6875 C 163.40154 146.6875 164.73461 147.08039 166.3418 148.08203 C 167.82518 149.00652 168.80256 150.09622 169.53711 151.64648 C 170.12002 152.87669 170.33346 153.85958 170.33984 155.34961 C 170.35264 158.31416 169.46204 160.15312 165.99805 164.31445 C 163.01641 167.89632 159.2815 171.40986 155.13281 174.53711 C 145.0385 182.14615 133.11062 186.75639 120.34961 187.98047 C 117.1466 188.28773 112.60059 188.41863 109.98438 188.2793 C 106.49111 188.0933 103.7142 187.80312 100.88867 187.32617 C 87.386084 185.04688 75.141847 178.81146 65.341797 169.22266 C 61.990441 165.94355 58.639265 161.89674 57.482422 159.73242 C 55.84554 156.67002 56.282117 152.76519 58.576172 149.94922 C 59.530729 148.77751 61.230404 147.64237 62.861328 147.08594 C 63.711808 146.79579 64.004369 146.74937 65.175781 146.71094 C 66.8346 146.65654 67.917036 146.88083 69.304688 147.56641 C 70.870548 148.34001 72.060082 149.46867 72.925781 151.00586 C 73.446218 151.93 74.919997 153.85687 76.130859 155.19531 C 82.094724 161.78758 90.284001 166.67467 99.363281 169.05859 C 102.13701 169.78687 105.76523 170.37413 108.95312 170.61133 C 110.74983 170.74497 115.29971 170.7433 117.15234 170.60938 C 127.26362 169.87625 136.7708 166.35667 144.52539 160.47461 C 148.34917 157.57416 151.7555 154.11798 153.79492 151.07031 C 155.71889 148.1952 158.40463 146.6875 161.60156 146.6875 z"/></svg>

<svg xmlns="http://www.w3.org/2000/svg" width="226.777" height="226.777" viewBox="0 0 226.777 226.777"><path d="M113.441 0C50.79 0 0 50.79 0 113.443c0 62.654 50.79 113.442 113.441 113.442 62.654 0 113.444-50.788 113.444-113.442C226.885 50.79 176.096 0 113.44 0zM66.7 51.146c1.612.028 3.192 1.038 3.969 2.608l.387.783.03 2.92.032 2.918h6.795v-2.346c0-1.29.048-2.647.106-3.015.38-2.418 2.72-4.173 5.076-3.807 1.893.294 3.487 1.897 3.787 3.807.058.368.105 1.72.105 3.004v2.336l2.45.042c2.199.04 2.517.068 3.103.274 1.611.565 2.852 1.804 3.44 3.43l.238.658v56.305l-.24.697c-.485 1.404-1.416 2.46-2.75 3.12-.994.493-1.503.565-4.028.565h-2.195l-.04 3.326c-.036 3.169-.05 3.353-.273 3.917a4.851 4.851 0 0 1-1.502 2.054c-.841.681-1.642.963-2.74.963-1.097 0-1.898-.282-2.74-.963a4.851 4.851 0 0 1-1.502-2.054c-.223-.564-.236-.748-.273-3.917l-.04-3.326h-6.789v3.239c0 2.845-.024 3.312-.189 3.841-.711 2.28-3.134 3.67-5.353 3.073h-.002c-1.654-.446-2.982-1.846-3.327-3.506-.09-.438-.079-1.235.047-3.53.09-1.63.163-3.152.162-3.382v-.418l-1.386-.276c-7.57-1.498-12.718-6.424-14.243-13.627-.37-1.752-.493-3.262-.43-5.302.06-1.893.2-2.892.634-4.485.927-3.4 3.085-6.583 5.855-8.636.47-.349.856-.668.856-.71 0-.041-.377-.358-.836-.705-2.078-1.565-3.898-4.007-4.819-6.464-.718-1.916-1.029-3.727-1.025-5.98.005-3.252.611-5.969 1.904-8.55 2.26-4.51 6.519-7.706 11.969-8.984l1.21-.283.003-2.797c.001-1.538.05-3 .107-3.248.407-1.764 1.974-3.228 3.768-3.52.23-.037.459-.052.69-.049zm78.49.377c1.261.05 2.514.637 3.391 1.791.802 1.056.846 1.283.883 4.561l.033 2.912h6.793l.002-2.396c0-1.319.048-2.697.107-3.06.236-1.45 1.187-2.71 2.553-3.386.756-.373.821-.386 1.877-.386s1.121.013 1.877.386c1.366.675 2.316 1.936 2.55 3.385.06.364.11 1.813.11 3.219.001 1.955.03 2.563.13 2.592.07.02.554.136 1.073.257 3.074.717 6.035 2.197 8.21 4.102 3.128 2.74 5.078 6.696 5.55 11.26.169 1.63.067 4.306-.215 5.63-.786 3.7-2.762 6.882-5.601 9.018l-.883.664.793.518c1.101.72 3.023 2.667 3.82 3.867 2.167 3.261 3.139 7.305 2.82 11.74-.492 6.866-3.503 11.863-8.89 14.758-1.612.867-4.539 1.823-6.205 2.027l-.584.073-.04 3.521c-.036 3.376-.047 3.544-.273 4.112a4.856 4.856 0 0 1-1.502 2.054c-.841.681-1.642.963-2.74.963-1.097 0-1.9-.282-2.742-.963a4.851 4.851 0 0 1-1.502-2.054c-.223-.564-.234-.748-.272-3.917l-.039-3.326h-6.791v3.239c0 2.845-.022 3.312-.187 3.841-.714 2.287-3.134 3.67-5.37 3.069h-.001c-.825-.222-1.49-.624-2.112-1.276-1.188-1.246-1.3-1.747-1.3-5.75v-3.123h-2.3c-3.217 0-4.025-.24-5.384-1.6-.413-.413-.841-.964-1.002-1.288-.64-1.294-.596.848-.596-29.416 0-30.65-.052-28.411.682-29.637.485-.81 1.391-1.712 2.094-2.084 1.085-.575 1.467-.633 4.1-.633h2.406v-2.572c0-2.84.065-3.36.55-4.28.87-1.65 2.506-2.475 4.127-2.412zm-61.71 20.29l-9.1.037c-9.871.04-9.479.02-11.142.623-1.647.597-2.984 1.76-3.677 3.195-.596 1.231-.762 2.03-.762 3.682 0 1.591.154 2.392.685 3.539.976 2.107 3.033 3.456 5.907 3.875.335.049 4.542.094 9.35.101l8.74.012V71.812zm60.229.01v15.054h8.584c6.974 0 8.77-.03 9.566-.15 1.998-.305 3.364-.941 4.54-2.116 1.313-1.311 1.955-3.037 1.955-5.261 0-3.504-1.709-5.977-4.844-7.008-1.502-.494-2.05-.52-11.217-.52h-8.584zm-68.865 26.09c-5.133 0-9.015.043-9.567.105-2.618.294-4.711 1.335-5.931 2.95-1.08 1.431-1.595 3.137-1.58 5.245.01 1.596.224 2.538.877 3.867.35.713.605 1.049 1.367 1.807 1.305 1.297 2.786 2.038 4.617 2.308l1.012.149c.141.02 4.215.045 9.05.052l8.791.014V97.912h-8.636zm69.174 0v16.497h8.586c5.428 0 8.926-.04 9.513-.11 3.04-.36 5.482-2.066 6.707-4.685.665-1.42.822-2.134.822-3.763 0-1.634-.162-2.379-.806-3.713-.342-.708-.594-1.046-1.305-1.756-1.37-1.368-3.03-2.109-5.299-2.362-.623-.069-4.174-.109-9.603-.109h-8.615zm17.584 48.775c1.8 0 3.133.392 4.74 1.394 1.483.925 2.46 2.014 3.195 3.564.583 1.23.796 2.214.803 3.704.013 2.964-.878 4.803-4.342 8.964-2.982 3.582-6.716 7.096-10.865 10.223-10.095 7.61-22.022 12.22-34.783 13.443-3.203.308-7.75.439-10.366.3-3.493-.187-6.27-.477-9.095-.954-13.503-2.28-25.747-8.515-35.547-18.103-3.352-3.28-6.703-7.326-7.86-9.49-1.636-3.063-1.2-6.968 1.094-9.784.955-1.171 2.654-2.307 4.285-2.863.85-.29 1.143-.337 2.315-.375 1.659-.054 2.741.17 4.129.855 1.566.774 2.755 1.903 3.62 3.44.521.924 1.995 2.85 3.206 4.19 5.964 6.592 14.153 11.479 23.232 13.863 2.774.728 6.402 1.315 9.59 1.552 1.797.134 6.347.132 8.2-.002 10.11-.733 19.618-4.252 27.372-10.134 3.824-2.9 7.23-6.357 9.27-9.405 1.924-2.875 4.61-4.382 7.807-4.382z"/></svg>
